!!! OTL: Berkowitz57
!!! Chapter: 1
!!! Section: I
!!! Page: 16
!!! Mode: 
!!! Encoder: DJB
**kern
*staff1
*I"Piano
=1-
*clefC3
*k[f#]
*G:
*M4/4
4.g\
8a\
4b\
4d\
=2
4.g\
8a\
2b\
=3
4.cc\
8b\
4a\
4g\
=4
4f#\
4e\
4d\
8e\L
8f#\J
=5
4.g\
8a\
8b\L
8d\
8e\
8f#\J
=6
4.g\
8a\
2b\
=7
4cc\
8b\L
8a\J
4b\
8a\L
8g\J
=8
4.a\
8b\
2g\
==
*-
